X: 1
T: Lady Margaret Stewart's
M: 2/4
L: 1/8
R: polka
K: Bmin
|: FB B>c|dB cA|EA A>B|cd ec|
BF Bc|dc db|af ec|B2 B2:|
f2 Bf|df Bf|ea e>f|ec Aa|
f2 Bf|df Bb|af ec|B2 Ba|
f2 Bf|df Bf|ea e>f|ec Ac|
BF Bc|dc db|af ec|B2 B2||
